gtk-icons/Papirus-Dark-GTK/24x24/actions/kmouth-phresebook-new.svg

<?xml version="1.0" encoding="UTF-8" standalone="no"?>
<!-- Created with Inkscape (http://www.inkscape.org/) -->

<svg
   xmlns:osb="http://www.openswatchbook.org/uri/2009/osb"
   xmlns:dc="http://purl.org/dc/elements/1.1/"
   xmlns:cc="http://creativecommons.org/ns#"
   xmlns:rdf="http://www.w3.org/1999/02/22-rdf-syntax-ns#"
   xmlns:svg="http://www.w3.org/2000/svg"
   xmlns="http://www.w3.org/2000/svg"
   xmlns:sodipodi="http://sodipodi.sourceforge.net/DTD/sodipodi-0.dtd"
   xmlns:inkscape="http://www.inkscape.org/namespaces/inkscape"
   sodipodi:docname="kmouth-phresebook-new.svg"
   inkscape:export-filename="/home/sam/source-symbolic.png"
   inkscape:export-xdpi="270"
   inkscape:export-ydpi="270"
   height="24"
   id="svg7384"
   style="enable-background:new"
   version="1.1"
   inkscape:version="0.91 r13725"
   width="24">
  <sodipodi:namedview
     inkscape:bbox-nodes="true"
     inkscape:bbox-paths="false"
     bordercolor="#666666"
     borderlayer="false"
     borderopacity="1"
     inkscape:current-layer="layer9"
     inkscape:cx="-2.3788894"
     inkscape:cy="14.378735"
     gridtolerance="10"
     inkscape:guide-bbox="true"
     guidetolerance="10"
     id="namedview88"
     inkscape:object-nodes="true"
     inkscape:object-paths="true"
     objecttolerance="10"
     pagecolor="#f7f7f7"
     inkscape:pageopacity="1"
     inkscape:pageshadow="2"
     showborder="true"
     showgrid="false"
     showguides="true"
     inkscape:showpageshadow="false"
     inkscape:snap-bbox="true"
     inkscape:snap-bbox-edge-midpoints="false"
     inkscape:snap-bbox-midpoints="true"
     inkscape:snap-center="false"
     inkscape:snap-global="true"
     inkscape:snap-grids="true"
     inkscape:snap-intersection-paths="true"
     inkscape:snap-midpoints="true"
     inkscape:snap-nodes="true"
     inkscape:snap-object-midpoints="true"
     inkscape:snap-others="true"
     inkscape:snap-page="false"
     inkscape:snap-smooth-nodes="true"
     inkscape:snap-to-guides="true"
     inkscape:window-height="847"
     inkscape:window-maximized="1"
     inkscape:window-width="1600"
     inkscape:window-x="0"
     inkscape:window-y="30"
     inkscape:zoom="14.06">
    <inkscape:grid
       color="#ffffff"
       dotted="false"
       empcolor="#0800ff"
       empopacity="0.4627451"
       empspacing="4"
       enabled="true"
       id="grid4866"
       opacity="0.16470588"
       originx="-24.000198"
       originy="-492.00336"
       snapvisiblegridlinesonly="true"
       spacingx="0.25px"
       spacingy="0.25px"
       type="xygrid"
       visible="true" />
  </sodipodi:namedview>
  <metadata
     id="metadata90">
    <rdf:RDF>
      <cc:Work
         rdf:about="">
        <dc:format>image/svg+xml</dc:format>
        <dc:type
           rdf:resource="http://purl.org/dc/dcmitype/StillImage" />
        <dc:title>Paper Symbolic Icon Theme</dc:title>
      </cc:Work>
    </rdf:RDF>
  </metadata>
  <title
     id="title8473">Paper Symbolic Icon Theme</title>
  <defs
     id="defs7386">
    <linearGradient
       id="linearGradient5606"
       osb:paint="solid">
      <stop
         id="stop5608"
         offset="0"
         style="stop-color:#ffffff;stop-opacity:1;" />
    </linearGradient>
    <filter
       inkscape:collect="always"
       id="filter7554"
       style="color-interpolation-filters:sRGB">
      <feBlend
         inkscape:collect="always"
         id="feBlend7556"
         in2="BackgroundImage"
         mode="darken" />
    </filter>
    <style
       type="text/css"
       id="current-color-scheme">
      .ColorScheme-Text {
        color:#4d4d4d;
      }
      .ColorScheme-Background {
        color:#eff0f1;
      }
      .ColorScheme-Highlight {
        color:#3daee9;
      }
      .ColorScheme-ViewText {
        color:#31363b;
      }
      .ColorScheme-ViewBackground {
        color:#fcfcfc;
      }
      .ColorScheme-ViewHover {
        color:#93cee9;
      }
      .ColorScheme-ViewFocus{
        color:#3daee9;
      }
      .ColorScheme-ButtonText {
        color:#31363b;
      }
      .ColorScheme-ButtonBackground {
        color:#eff0f1;
      }
      .ColorScheme-ButtonHover {
        color:#93cee9;
      }
      .ColorScheme-ButtonFocus{
        color:#3daee9;
      }
      </style>
  </defs>
  <g
     inkscape:groupmode="layer"
     id="layer9"
     inkscape:label="status"
     style="display:inline"
     transform="translate(-265.0004,283.00336)">
    <g
       id="g4202"
       transform="translate(4,-4)">
      <path
         id="path4150"
         transform="translate(265.0004,-275.00336)"
         d="M 3.40625,2 C 3.40625,2 2,2.0003906 2,3.4003906 L 2,5.5 2,6.9003906 2,7.5996094 C 2,8.2277518 2.4206855,8.7512586 3,8.9296875 L 3,8.5 3,6.4003906 C 3,5.0003906 4.40625,5 4.40625,5 l 7.166016,0 c 0,0 0.195898,0.023531 0.427734,0.085937 L 12,3.4003906 C 12,2.0003906 10.572266,2 10.572266,2 L 3.40625,2 Z"
         style="opacity:0.3;fill:#ffffff;fill-opacity:1;stroke:none"
         inkscape:connector-curvature="0" />
      <path
         id="path4148"
         transform="translate(265.0004,-275.00336)"
         d="M 5.40625,6 C 5.40625,6 4,6.0003906 4,7.4003906 L 4,9.5 4,10.900391 4,11.599609 C 4,12.375209 4.6363044,13 5.4277344,13 L 9,13 l 1.5,2 1.5,-2 0.572266,0 C 12.572266,13 14,12.999599 14,11.599609 L 14,7.4003906 C 14,6.0003906 12.572266,6 12.572266,6 L 5.40625,6 Z M 9,7 l 1,0 0,2 2,0 0,1 -2,0 0,2 -1,0 0,-2 -2,0 0,-1 2,0 0,-2 z"
         style="opacity:0.72;fill:#ffffff;fill-opacity:1;stroke:none"
         inkscape:connector-curvature="0" />
    </g>
    <g
       id="layer1-4"
       inkscape:label="places"
       style="display:inline"
       transform="translate(380.0004,-740.50168)" />
    <g
       id="layer14-0"
       inkscape:label="mimetypes"
       style="display:inline"
       transform="translate(139.0002,-123.50168)" />
    <g
       id="layer15-1"
       inkscape:label="emblems"
       style="display:inline"
       transform="translate(139.0002,-123.50168)" />
    <g
       id="g71291-4"
       inkscape:label="emotes"
       style="display:inline"
       transform="translate(139.0002,-123.50168)" />
    <g
       id="layer2-2"
       inkscape:label="categories"
       style="display:inline"
       transform="translate(380.0004,-590.50168)" />
    <g
       id="g6058-4"
       inkscape:label="apps"
       style="display:inline"
       transform="translate(380.0004,-590.50168)" />
    <g
       id="layer12-0"
       inkscape:label="actions"
       style="display:inline"
       transform="translate(139.0002,-123.50168)" />
  </g>
  <g
     inkscape:groupmode="layer"
     id="layer10"
     inkscape:label="devices"
     style="display:inline;filter:url(#filter7554)"
     transform="translate(-265.0004,283.00336)" />
  <g
     inkscape:groupmode="layer"
     id="layer1"
     inkscape:label="places"
     style="display:inline"
     transform="translate(-24.000198,-333.99664)" />
  <g
     inkscape:groupmode="layer"
     id="layer14"
     inkscape:label="mimetypes"
     style="display:inline"
     transform="translate(-265.0004,283.00336)" />
  <g
     inkscape:groupmode="layer"
     id="layer15"
     inkscape:label="emblems"
     style="display:inline"
     transform="translate(-265.0004,283.00336)" />
  <g
     inkscape:groupmode="layer"
     id="g71291"
     inkscape:label="emotes"
     style="display:inline"
     transform="translate(-265.0004,283.00336)" />
  <g
     inkscape:groupmode="layer"
     id="layer2"
     inkscape:label="categories"
     style="display:inline"
     transform="translate(-24.000198,-183.99664)" />
  <g
     inkscape:groupmode="layer"
     id="g6058"
     inkscape:label="apps"
     style="display:inline"
     transform="translate(-24.000198,-183.99664)" />
  <g
     inkscape:groupmode="layer"
     id="layer12"
     inkscape:label="actions"
     style="display:inline"
     transform="translate(-265.0004,283.00336)" />
</svg>

<?xml version="1.0" encoding="UTF-8" standalone="no"?>
<!-- Created with Inkscape (http://www.inkscape.org/) -->
<svg id="svg7384" xmlns:rdf="http://www.w3.org/1999/02/22-rdf-syntax-ns#" style="enable-background:new" xmlns="http://www.w3.org/2000/svg" xmlns:osb="http://www.openswatchbook.org/uri/2009/osb" height="24" width="24" version="1.1" xmlns:cc="http://creativecommons.org/ns#" xmlns:dc="http://purl.org/dc/elements/1.1/">
 <metadata id="metadata90">
  <rdf:RDF>
   <cc:Work rdf:about="">
    <dc:format>image/svg+xml</dc:format>
    <dc:type rdf:resource="http://purl.org/dc/dcmitype/StillImage"/>
    <dc:title>Paper Symbolic Icon Theme</dc:title>
   </cc:Work>
  </rdf:RDF>
 </metadata>
 <title id="title8473">Paper Symbolic Icon Theme</title>
 <defs id="defs7386">
  <filter id="filter7554" style="color-interpolation-filters:sRGB">
   <feBlend id="feBlend7556" in2="BackgroundImage" mode="darken"/>
  </filter>
  <style id="current-color-scheme" type="text/css">.ColorScheme-Text {
        color:#4d4d4d;
      }
      .ColorScheme-Background {
        color:#eff0f1;
      }
      .ColorScheme-Highlight {
        color:#3daee9;
      }
      .ColorScheme-ViewText {
        color:#31363b;
      }
      .ColorScheme-ViewBackground {
        color:#fcfcfc;
      }
      .ColorScheme-ViewHover {
        color:#93cee9;
      }
      .ColorScheme-ViewFocus{
        color:#3daee9;
      }
      .ColorScheme-ButtonText {
        color:#31363b;
      }
      .ColorScheme-ButtonBackground {
        color:#eff0f1;
      }
      .ColorScheme-ButtonHover {
        color:#93cee9;
      }
      .ColorScheme-ButtonFocus{
        color:#3daee9;
      }</style>
 </defs>
 <g id="layer9" transform="translate(-265 283)">
  <g id="g4202" fill="#fff" transform="translate(4,-4)">
   <path id="path4150" opacity=".3" d="m3.4062 2s-1.4062 0.0004-1.4062 1.4004v2.0996 1.4004 0.6992c0 0.6282 0.4207 1.1517 1 1.3301v-0.4297-2.0996c0-1.4 1.4062-1.4004 1.4062-1.4004h7.166s0.1959 0.023531 0.42773 0.085937v-1.6855c0-1.4-1.428-1.4004-1.428-1.4004h-7.1658z" transform="translate(265 -275)"/>
   <path id="path4148" opacity=".72" d="m5.4062 6s-1.4062 0.0004-1.4062 1.4004v2.0996 1.4 0.7c0 0.775 0.6363 1.4 1.4277 1.4h3.5723l1.5 2 1.5-2h0.57227s1.428 0 1.428-1.4v-4.1996c0-1.4-1.428-1.4004-1.428-1.4004h-7.1658zm3.5938 1h1v2h2v1h-2v2h-1v-2h-2v-1h2v-2z" transform="translate(265 -275)"/>
  </g>
 </g>
</svg>
